X:79
T:Tripping up the Stairs
R:Jig
M:6/8
L:1/8
K:D
A/G/|:"D"FAA "G"GBB|"D"FAd fed|"A"cBc ABc|1"D"dfe "A"d2A/G/:|2"G"dfe "D"d3||
|:"Bm"dB3/2B/ fB3/2B/|fef fed|1"A"cAA eAA|efe edc :|2"A"cBc ABc|"G"dfe "D"d3||

